X: 29367
T: Newmarket, The
R: polka
M: 2/4
K: Gmajor
|:GB dB/d/|gf ef|AB cB/c/|ed B/c/B/A/|
GB dB/d/|gf ef|AB c/d/c/A/|GF G2:|
|:bd bd|bd b2|ae ae|ae f/g/a|
bd bd|bd b2|ae fe/f/|ag g2:|

